svg/file-icons/Biml.svg

<svg version="1.1" xmlns="http://www.w3.org/2000/svg" width="512px" height="512px"><path d="M450.6973267,270.5367737l57.0067139-77.5291595c11.9714355-16.2469025-1.9952087-29.3584595-30.4985962-29.9285278L450.6973267,270.5367737z M450.6973267,425.8801575V270.5368042l32.7788696,134.5357666c6.8276367,28.1639404-11.335083,51.209137-40.5939941,51.5814514C447.6875916,448.8877869,450.5731506,437.5525513,450.6973267,425.8801575z M112.9324341,55.0512619h283.8936157c20.5127563,0.5176506,38.0477295,12.5139999,45.8903503,29.358429l7.9809265,186.1271057c-32.9908447-121.5572205-23.047821-178.3917236-99.4766541-186.0874023H66.3203583C75.1228561,68.9877548,88.9707794,55.6086464,112.9324341,55.0512619z M318.1566772,163.0790863c29.6435547,0,63.8475952,13.3966217,75.8190308,29.9285278l56.7216187,77.5291901H61.0562706L4.3346791,193.0076141c-11.9714489-16.2469482,1.7101321-29.358429,30.4984627-29.9285278H318.1566772z M351.2206726,456.9487305H69.1797485c-39.7241135-2.3128357-53.0471344-33.8930664-34.3465691-78.9543762h283.3234863c67.4670105-6.8215332,70.6487732-18.7531433,132.5406494-107.45755C415.5936279,409.0652161,419.6136169,450.1930237,351.2206726,456.9487305z"/></svg>

<svg xmlns="http://www.w3.org/2000/svg" width="512" height="512"><path d="m450.697 270.537 57.007-77.53c11.971-16.246-1.995-29.358-30.499-29.928l-26.508 107.458zm0 155.343V270.537l32.78 134.536c6.827 28.164-11.336 51.209-40.595 51.581 4.806-7.766 7.691-19.101 7.815-30.774zM112.932 55.051h283.894c20.513.518 38.048 12.514 45.89 29.359l7.981 186.127C417.707 148.98 427.65 92.145 351.221 84.449H66.32c8.802-15.461 22.65-28.84 46.611-29.398zM318.157 163.08c29.643 0 63.847 13.397 75.819 29.929l56.721 77.529H61.057l-56.722-77.53c-11.972-16.246 1.71-29.358 30.498-29.928h283.324zm33.064 293.87H69.18c-39.724-2.313-53.047-33.893-34.347-78.955h283.324c67.467-6.821 70.648-18.753 132.54-107.457-35.103 138.528-31.083 179.656-99.476 186.412z"/></svg>
